X:1
T:Domine, salvam fac
T:J. Concone
T:Domine, salvam fac
T:Copyright © 
T:Copyright © 
T:Copyright © 
T:Copyright © 
T:Copyright © 
T:Copyright © 
C:J. Concone
Z:Copyright ©
%%score [ ( 1 2 ) ( 3 4 ) ] { ( 5 8 ) | ( 6 7 9 ) }
L:1/8
Q:1/4=120
M:4/4
K:Bb
V:1 treble nm="Voice" snm="Voice"
V:2 treble 
V:3 bass nm="Bass" snm="B."
V:4 bass 
V:5 treble nm="Piano" snm="Pno."
V:8 treble 
V:6 bass 
V:7 bass 
V:9 bass 
V:1
"^Allegro brillante" x2 | z8 | z8 | z8 | z8 | z8 ||"^SA"!f!"^animato e risoluto" F2 D>D F2 B2 | %7
w: |||||||
w: ||||||Do- mi- ne, sal- vam|
 !>!d8 | F2 d2 d2 c2 | B3 F F2 z2 | !>!c3 A F2 z2 | !>!d3 B F2 z2 | A2 F2 B2 d2 | c2 f2 F2 z2 | %14
w: |* * * Ec-|cle- si- am,|||* * * Ec-|cle- si- am.|
w: fac,|sal- vam fac (rem-|pub- li- cam,)|Do- mi- ne,|Do- mi- ne,|sal- vam fac (rem-|pub- li- cam.)|
 z8 | F2 D>D F2 B2 | !>!d4 d2 c2 | B3 A G2 z2 |!ff! !>!c2 !>!d2 !>!e2 z2 | %19
w: ||* * Ec-|cle- si- am,||
w: |Do- mi- ne, sal- vam|fac, fac (rem-|pub- li- cam,)|sal- vam fac,|
 !>!F2 !>!B2 !>!d z!f! F2 |!>(! d6"^-""^-" c2!>)! | B4!ff! z4 | !>!c2 !>!d2 !>!e2 z2 | %23
w: * * * Ec-|cle- si-|am,||
w: sal- vam fac (rem-|pub- li-|cam,)|sal- vam fac,|
 !>!F2 !>!B2 !>!d z!f! F2 |!>(! d6"^-""^-" c2!>)! | B4!ff! z4 | f4 f4 | d4 z4 | %28
w: * * * Ec-|cle- si-|am,|||
w: sal- vam fac (rem-|pub- li-|cam,)|sal- vam|fac,|
"^rit.""^rit.""^rit." A4 A4 | !fermata!B8 | z8 | z8 |] %32
w: ||||
w: sal- vam|fac.|||
V:2
 x2 | x8 | x8 | x8 | x8 | x8 || F2 D>D F2 B2 | !>!F8 | F2 F2 F2 E2 | D3 D D2 x2 | !>!c3 A F2 x2 | %11
 !>!d3 B F2 x2 | A2 F2 B2 d2 | c2 F2 F2 x2 | x8 | F2 D>D F2 B2 | D4 D2 A2 | B3 A G2 x2 | %18
 G2 G2 G2 x2 | F2 D2 F z F2 | F6 E2 | D4 x4 | G2 G2 G2 x2 | F2 D2 F z F2 | F6 A2 | B4 x4 | A4 A4 | %27
 B4 x4 | F4 E4 | D8 | x8 | x8 |] %32
V:3
 z2 | z8 | z8 | z8 | z8 | z8 ||"^TB" z8 |!f! F,2 D,>D, F,2 B,2 | D2 B,2 B,2 A,2 | B,4 !>!B,2 A,G, | %10
w: ||||||||* Ec- cle- si-|am, * * *|
w: |||||||Do- mi- ne, sal- vam|fac (rem- pub- li-|cam,) Do- mi- *|
 F,4 !>!C2 A,G, | F,4 D2 B,2 | A,2 C2 D2 B,2 | A,2 A,2 A,2 z2 | F,2 D,>D, F,2 B,2 | !>!D8 | %16
w: ||* * * Ec-|cle- si- am,|||
w: ne, Do- mi- *|ne, sal- vam,|sal- vam fac (rem-|pub- li- cam,)|Do- mi- ne, sal- vam|fac|
 F,2 D2 D2 D2 | D3 C B,2 z2 |!ff! C2 D2 C2 z2 | D2 B,2 B, z!f! F,2 | (F,2 B,C) A,2 A,2 | %21
w: Ec- cle- si- am,|||* * * Ec-|cle- * * si- am,|
w: (rem- pub- li- cam,)|Do- mi- ne,|Do- mi- ne,|sal- vam fac (rem-|pub- * * li- cam,)|
 B,2 C2!ff! D4 | E2 D2 C2 z2 | D2 D2 B, z!f! F,2 | (F,2 B,C) A,2 A,2 | (B,CD)B, (=B,2!ff! C2) | %26
w: ||* * * Ec-|cle- * * si- am,|sal- * vam _ fac, _|
w: Do- mi- ne,|Do- mi- ne,|sal- vam fac (rem-|pub- * * li- cam,)||
 (CDE)C C4 | (DCB,)G, F,4 | (EDCB,) (A,G, F,2) | F,8 | z8 | z8 |] %32
w: sal- * vam _ fac,|sal- * vam _ fac,|sal- * * vam _ _ _|fac.|||
w: ||||||
V:4
 x2 | x8 | x8 | x8 | x8 | x8 || x8 | F,2 D,>D, F,2 B,2 | F,2 F,2 F,2 F,2 | B,,4 !>!B,2 A,G, | %10
 F,4 !>!C2 A,G, | F,4 D2 B,2 | F,2 F,2 F,2 F,2 | F,2 F,2 F,2 x2 | F,2 D,>D, F,2 B,2 | !>!F,8 | %16
 F,2 F,2 ^F,2 F,2 | G,3 G, G,2 x2 | E,2 =B,,2 C,2 x2 | F,2 F,2 F, z F,2 | F,4 F,2 ^F,2 | %21
 G,2 A,2 B,4 | C2 =B,2 C2 x2 | B,2 B,2 F, z F,2 | F,4 F,2 F,2 | (D,F,B,)B, F,4 | F,3 F, A,4 | %27
 (B,F,D,)E, F,4 | F,4 (F,E,D,C,) | !fermata!B,,8 | x8 | x8 |] %32
V:5
"^Allegro brillante" (e>"^Instrument change"f | %1
"^Instrument change" g)"^Instrument change" z (c>d e) z (A>B | %2
"^Instrument change" c4)"^Instrument change" z2 (E>F | %3
"^Instrument change" G)"^Instrument change" z (C>D E) z (C>A, | %4
"^Instrument change" F,6)"^Instrument change" z2 |"^Instrument change" !fermata![FAf]8 || %6
"^Instrument change" [F,B,D]"^Instrument change"[F,B,D][F,B,D][F,B,D] [F,B,D][F,B,D][F,B,D][F,B,D] | %7
"^Instrument change" [F,B,D]"^Instrument change"[B,D]"^Instrument change"[B,D][B,D] [B,D][B,D][B,D][B,D] | %8
"^Instrument change" [B,D][B,D][B,D][B,D]"^Instrument change" [A,E][A,E][A,E][A,E] | %9
"^Instrument change" [F,B,D][F,B,D][F,B,D][F,B,D]"^Instrument change" [F,B,D][F,B,D][F,B,D][F,B,D] | %10
"^Instrument change" !>!F8 |"^Instrument change" !>!F8 | %12
"^Instrument change" A4"^Instrument change" B4 | %13
"^Instrument change" [CFA]4-"^Instrument change" [CFA]2 z2 | %14
"^Instrument change" [F,B,D][F,B,D][F,B,D][F,B,D] [F,B,D][F,B,D][F,B,D][F,B,D] | %15
"^Instrument change" [F,B,D]"^Instrument change"[B,D]"^Instrument change"[B,D][B,D] [B,D][B,D][B,D][B,D] | %16
"^Instrument change" [B,D][B,D][B,D][B,D]"^Instrument change" [A,CD][A,CD][A,CD][A,CD] | %17
"^Instrument change" [B,D][B,D][B,D][B,D]"^Instrument change" [B,D]2 z2 | %18
"^Instrument change" !>![CGc]2"^Instrument change" !>![FGd]2 !>![EGe]2 z2 | %19
"^Instrument change" !>![DF]2"^Instrument change" !>![DFB]2 !>![DFd]2 F2 | %20
"^Instrument change"!>(! [DFd]6!>)! [CEc]2"^Instrument change" | %21
"^Instrument change" [B,DB]4-"^Instrument change" [B,DB]2 z2 | %22
"^Instrument change" !>![CGc]2"^Instrument change" !>![FGd]2 !>![EGe]2 z2 | %23
"^Instrument change" !>![DF]2"^Instrument change" !>![DFB]2 !>![DFd]2 F2 | %24
"^Instrument change"!>(! [DFd]6!>)! [CEc]2"^Instrument change" | %25
"^Instrument change" [B,DB]2"^Instrument change" F>F F2 F2 | %26
!ff!"^Instrument change" [FAf]4"^Instrument change" [FAf]4 | %27
"^Instrument change" [FBd]2"^Instrument change" F>F F2 F2 | %28
"^Instrument change" [CEA]4"^Instrument change" [CEA]4 | %29
"^Instrument change" [B,DB]4"^Instrument change" !fermata!z4 | %30
"^Instrument change" z8"^Instrument change" |"^Instrument change" z8 |] %32
V:6
"^ORGUE"!f! E>F | G z C>D E z A,>B, | C4 z2 E,>F, | G, z C,>D, E, z C,>A,, | F,,6 z2 | %5
 !fermata![F,CE]8 ||!f! [B,,,B,,]8- | [B,,,B,,]2 !>!F,2 !>!D,2 !>!B,,2 | F,,4 [F,,F,]4 | %9
 [B,,,B,,]4- [B,,,B,,]2 z2 | z2 F,,2 F,2 F,,2 | z2 F,,2 F,2 F,,2 | F,4 F,4 | %13
 [F,,F,]4 [F,,,F,,]2 z2 | [B,,,B,,]8- | [B,,,B,,]2 !>!F,2 !>!D,2 !>!B,,2 | [F,,F,]4 [^F,,^F,]4 | %17
 [G,,G,]4 [G,,,G,,]2 z2 |!ff! [E,,E,]2 [=B,,,=B,,]2 [C,,C,]2 z2 | [F,,F,]2 [F,,F,]2 [F,,F,]2 z2 | %20
!f! F,,2 B,,>D, F,2 [^F,,^F,]2 | [G,,G,]4 [G,,,G,,]2 z2 |!ff! [E,,E,]2 [=B,,,=B,,]2 [C,,C,]2 z2 | %23
 [F,,F,]2 [F,,F,]2 [F,,F,]2 z2 |!f! F,,2 B,,>D, F,2 [F,,F,]2 | [B,,,B,,]2 z2 z4 | [F,CE]4 [F,CE]4 | %27
 [B,D]2 z2 z4 | [F,,F,]4 [F,,F,]4 | [B,,F,]4 z4 | [D,F,B,]4 [D,F,B,]4 | [D,F,B,]8 |] %32
V:7
 x>x | x z x>x x z x>x | x4 z2 x>x | x z x>x x z x>x | x6 z2 | x8 || !>!x8- | %7
 !>!x2 !>!x2 !>!x2 !>!x2 | !>!x4 !>!x4 | !>!x4- !>!x2 z2 | z2 x2 x2 x2 | z2 x2 x2 x2 | x8 | x4 x4 | %14
 x8- | x2 !>!x2 !>!x2 !>!x2 | x4 x4 | x4 x4 | !>!x2 !>!x2 !>!x2 z2 | !>!x2 !>!x2 !>!x2 z2 | x6 x2 | %21
 x4 x4 | !>!x2 !>!x2 !>!x2 z2 | !>!x2 !>!x2 !>!x2 z2 | !>!x6 !>!x2 | !>!x2 z2 z4 | x4 x4 | %27
 x2 z2 z4 | x4 x4 | x4 !fermata!z4 | x4 x4 | x8 |] %32
V:8
 x2 | x8 | x8 | x8 | x8 | x8 || x8 | x8 | x8 | x8 | %10
 x [A,E]"^Instrument change"[A,E][A,E] [A,E][A,E][A,E][A,E] | %11
 x [B,D]"^Instrument change"[B,D][B,D] [B,D][B,D][B,D][B,D] | z [EF][EF][EF] z [DF][DF][DF] | x8 | %14
 x8 | x8 | x8 | x8 | x8 | x8 | x8 | x8 | x8 | x8 | x8 | x8 | x8 | x8 | x8 | x8 | x8 | x8 |] %32
V:9
 x2 | x8 | x8 | x8 | x8 | x8 || x8 | x8 | x8 | x8 | x8 | x8 | F,,8 | x8 | x8 | x8 | x8 | x8 | x8 | %19
 x8 | F,,6 x2 | x8 | x8 | x8 | F,,6 x2 | x8 | x8 | x8 | x8 | x8 | [B,,,F,,]4 [B,,,F,,]4 | %31
 !fermata![B,,,F,,]8 |] %32

